sources/design/Outline/parenleft.svg

<svg:svg xmlns:cc="http://creativecommons.org/ns#" xmlns:dc="http://purl.org/dc/elements/1.1/" xmlns:inkscape="http://www.inkscape.org/namespaces/inkscape" xmlns:rdf="http://www.w3.org/1999/02/22-rdf-syntax-ns#" xmlns:sodipodi="http://sodipodi.sourceforge.net/DTD/sodipodi-0.dtd" xmlns:svg="http://www.w3.org/2000/svg" xml:space="preserve" width="1000" height="1000" version="1.1" style="clip-rule:evenodd;fill-rule:evenodd;image-rendering:optimizeQuality;shape-rendering:geometricPrecision;text-rendering:geometricPrecision" viewBox="0 0 1000 1000" id="svg10" sodipodi:docname="parenleft.svg" inkscape:version="1.0.2 (e86c870879, 2021-01-15)"><svg:metadata id="metadata14"><rdf:RDF><cc:Work rdf:about=""><dc:format>image/svg+xml</dc:format><dc:type rdf:resource="http://purl.org/dc/dcmitype/StillImage" /><dc:title /></cc:Work></rdf:RDF></svg:metadata><sodipodi:namedview pagecolor="#ffffff" bordercolor="#666666" borderopacity="1" objecttolerance="10" gridtolerance="10" guidetolerance="10" inkscape:pageopacity="0" inkscape:pageshadow="2" inkscape:window-width="1920" inkscape:window-height="1007" id="namedview12" showgrid="false" inkscape:zoom="0.84890884" inkscape:cx="351.60916" inkscape:cy="445.71985" inkscape:window-x="1920" inkscape:window-y="0" inkscape:window-maximized="1" inkscape:current-layer="svg10" showguides="true" inkscape:guide-bbox="true" inkscape:document-rotation="0" inkscape:pagecheckerboard="0"><sodipodi:guide position="0,1000" orientation="0,1" id="guide16" inkscape:label="" inkscape:locked="true" inkscape:color="rgb(0,0,255)" /><sodipodi:guide position="1763.3122,2036.1693" orientation="1000,0" id="guide18" /><sodipodi:guide position="0,200" orientation="0,1" id="guide20" inkscape:label="base" inkscape:locked="true" inkscape:color="rgb(0,0,255)" /><inkscape:grid type="xygrid" id="grid24" originx="-473.37552" originy="-489.69235" /><sodipodi:guide position="0,0" orientation="0,1" id="guide34" inkscape:label="bottom" inkscape:locked="true" inkscape:color="rgb(0,0,255)" /><sodipodi:guide position="225.05109,1693.3186" orientation="0,1" id="guide44" inkscape:label="" inkscape:locked="false" inkscape:color="rgb(0,0,255)" /><sodipodi:guide position="0,900" orientation="0,1" id="guide46" inkscape:label="" inkscape:locked="true" inkscape:color="rgb(0,0,255)" /><sodipodi:guide position="258.82232,601.32002" orientation="1,0" id="guide841" inkscape:label="width" />    <sodipodi:guide position="179.05338,777.36125" orientation="1,0" id="guide850" /><sodipodi:guide position="-45.941329,850.39619" orientation="0,-1" id="guide852" /><sodipodi:guide position="-63.61107,249.62497" orientation="0,-1" id="guide854" /><sodipodi:guide position="-40.051415,599.48585" orientation="0,-1" id="guide856" /><sodipodi:guide position="100.12854,733.77589" orientation="1,0" id="guide858" /></sodipodi:namedview>
 <svg:defs id="defs4"><inkscape:path-effect effect="fillet_chamfer" id="path-effect855" is_visible="true" lpeversion="1" satellites_param="F,0,0,1,0,20.779978,0,1 @ F,0,0,1,0,15.270248,0,1 @ F,0,0,1,0,0,0,1 @ F,0,0,1,0,0,0,1 @ F,0,0,1,0,0,0,1 @ F,0,0,1,0,33.322865,0,1 @ F,0,0,1,0,31.157102,0,1 @ F,0,0,1,0,0,0,1 @ F,0,0,1,0,0,0,1 @ F,0,0,1,0,0,0,1 @ F,0,0,1,0,0,0,1" unit="px" method="auto" mode="F" radius="0" chamfer_steps="1" flexible="false" use_knot_distance="true" apply_no_radius="true" apply_with_radius="true" only_selected="true" hide_knots="false" /><inkscape:path-effect effect="spiro" id="path-effect28" is_visible="true" lpeversion="1" /><inkscape:path-effect effect="spiro" id="path-effect868" is_visible="true" lpeversion="1" /><inkscape:path-effect effect="spiro" id="path-effect849" is_visible="true" lpeversion="1" /><inkscape:path-effect effect="spiro" id="path-effect851" is_visible="true" lpeversion="1" />
  <svg:style type="text/css" id="style2">
   
    .fil0 {fill:#EF7F1A;fill-rule:nonzero}
   
  </svg:style>
 <inkscape:path-effect effect="spiro" id="path-effect1214" is_visible="true" lpeversion="1" /><inkscape:path-effect effect="spiro" id="path-effect1195" is_visible="true" lpeversion="1" /><inkscape:path-effect effect="spiro" id="path-effect992" is_visible="true" lpeversion="1" /><inkscape:path-effect effect="spiro" id="path-effect1060" is_visible="true" lpeversion="1" /><inkscape:path-effect effect="spiro" id="path-effect1047" is_visible="true" lpeversion="1" /><inkscape:path-effect effect="spiro" id="path-effect1085" is_visible="true" lpeversion="1" /><inkscape:path-effect effect="spiro" id="path-effect1286" is_visible="true" lpeversion="1" /></svg:defs>
 
<svg:g id="path26"><svg:path style="color:#000000;clip-rule:nonzero;fill:#1a5fb4;fill-rule:nonzero;stroke-linecap:round;stroke-linejoin:round;-inkscape-stroke:none;paint-order:fill stroke markers;shape-rendering:auto" d="M 181.97461,-22.726562 C 169.62558,-23.348165 157.03559,-19.288741 148.50781,-10.214844000000001 C 120.87238,19.190366 95.970043,51.146857 74.214844,85.138672 C 14.280996,178.78343 -21.15781,287.70694 -27.306641,398.80469 C -35.379625,544.66826 6.746561100000001,688.65018 74.599609,815.13672 C 92.867906,849.1911 113.03899,882.21997 134.98633,914.02539 C 144.78920000000002,928.2314200000001 161.25976,938.17932 178.67773,938.5800800000001 C 196.0957,938.9808300000001 212.65895,930.06244 223.28125,916.73242 L 262.86719,867.05664 C 283.68207,840.9358500000001 277.65912,802.15327 252.72266,782.00977 C 233.77796999999998,766.70638 216.28044999999997,749.59369 200.58007999999998,730.99414 C 125.98162999999998,642.62061 93.78541299999998,520.24927 101.90233999999998,402.39258 C 104.93300999999998,358.38776 113.22960999999998,315.19457 128.99414,275.56445 C 144.72647999999998,236.01526 168.22138999999999,199.79247000000004 198.75,172.23047000000003 C 215.17914,157.39782000000002 233.81043,144.90287000000004 253.7832,135.29102000000003 C 265.44117,129.68064000000004 275.80335,118.98101000000003 279.44727,105.08008000000004 C 283.09118,91.17914800000004 278.95232,75.75636100000004 270.63477,65.14062500000003 L 213.99414,-7.1503906 C 206.43147,-16.802661 194.32363,-22.10496 181.97461,-22.726562 M 179.06445000000002,45.550781 L 213.07031,88.955078 C 193.51846,99.767668 175.15109,112.69931 158.54102,127.69531 C 120.03755000000001,162.45723 91.885998,206.51844 73.242187,253.38672000000003 C 54.630570000000006,300.17407000000003 45.402447,349.49038 42.042969,398.26953000000003 C 32.99073,529.70676 68.14368999999999,667.11973 154.73047,769.6953100000001 C 172.90129,791.22149 193.11663,810.99058 215.01953,828.6835900000001 C 216.84836,830.1609100000001 216.57605,828.8701000000001 215.94336,829.6640600000001 L 180.49023,874.1562500000001 C 161.33134,845.96407 143.58487,816.80861 127.47266,786.77344 C 63.71319,667.91785 25.28893,534.24459 32.601562,402.11914 C 38.16534,301.5922 70.432512,202.35289 124.75195,117.48047 C 140.96188,92.152961 159.20563,68.13979 179.06445,45.550781 L 179.06445000000002,45.550781" id="path22118" /></svg:g></svg:svg>

<svg:svg xmlns:cc="http://creativecommons.org/ns#" xmlns:dc="http://purl.org/dc/elements/1.1/" xmlns:inkscape="http://www.inkscape.org/namespaces/inkscape" xmlns:rdf="http://www.w3.org/1999/02/22-rdf-syntax-ns#" xmlns:sodipodi="http://sodipodi.sourceforge.net/DTD/sodipodi-0.dtd" xmlns:svg="http://www.w3.org/2000/svg" xml:space="preserve" width="1000" height="1000" version="1.1" style="clip-rule:evenodd;fill-rule:evenodd;image-rendering:optimizeQuality;shape-rendering:geometricPrecision;text-rendering:geometricPrecision" viewBox="0 0 1000 1000" id="svg10" sodipodi:docname="parenleft.svg" inkscape:version="1.0.2 (e86c870879, 2021-01-15)"><svg:metadata id="metadata14"><rdf:RDF><cc:Work rdf:about=""><dc:format>image/svg+xml</dc:format><dc:type rdf:resource="http://purl.org/dc/dcmitype/StillImage" /><dc:title /></cc:Work></rdf:RDF></svg:metadata><sodipodi:namedview pagecolor="#ffffff" bordercolor="#666666" borderopacity="1" objecttolerance="10" gridtolerance="10" guidetolerance="10" inkscape:pageopacity="0" inkscape:pageshadow="2" inkscape:window-width="1920" inkscape:window-height="1007" id="namedview12" showgrid="false" inkscape:zoom="0.84890884" inkscape:cx="351.60916" inkscape:cy="445.71985" inkscape:window-x="1920" inkscape:window-y="0" inkscape:window-maximized="1" inkscape:current-layer="svg10" showguides="true" inkscape:guide-bbox="true" inkscape:document-rotation="0" inkscape:pagecheckerboard="0"><sodipodi:guide position="0,1000" orientation="0,1" id="guide16" inkscape:label="" inkscape:locked="true" inkscape:color="rgb(0,0,255)" /><sodipodi:guide position="1763.3122,2036.1693" orientation="1000,0" id="guide18" /><sodipodi:guide position="0,200" orientation="0,1" id="guide20" inkscape:label="base" inkscape:locked="true" inkscape:color="rgb(0,0,255)" /><inkscape:grid type="xygrid" id="grid24" originx="-473.37552" originy="-489.69235" /><sodipodi:guide position="0,0" orientation="0,1" id="guide34" inkscape:label="bottom" inkscape:locked="true" inkscape:color="rgb(0,0,255)" /><sodipodi:guide position="225.05109,1693.3186" orientation="0,1" id="guide44" inkscape:label="" inkscape:locked="false" inkscape:color="rgb(0,0,255)" /><sodipodi:guide position="0,900" orientation="0,1" id="guide46" inkscape:label="" inkscape:locked="true" inkscape:color="rgb(0,0,255)" /><sodipodi:guide position="258.82232,601.32002" orientation="1,0" id="guide841" inkscape:label="width" />    <sodipodi:guide position="179.05338,777.36125" orientation="1,0" id="guide850" /><sodipodi:guide position="-45.941329,850.39619" orientation="0,-1" id="guide852" /><sodipodi:guide position="-63.61107,249.62497" orientation="0,-1" id="guide854" /><sodipodi:guide position="-40.051415,599.48585" orientation="0,-1" id="guide856" /><sodipodi:guide position="100.12854,733.77589" orientation="1,0" id="guide858" /></sodipodi:namedview>
 <svg:defs id="defs4"><inkscape:path-effect effect="fillet_chamfer" id="path-effect855" is_visible="true" lpeversion="1" satellites_param="F,0,0,1,0,20.779978,0,1 @ F,0,0,1,0,15.270248,0,1 @ F,0,0,1,0,0,0,1 @ F,0,0,1,0,0,0,1 @ F,0,0,1,0,0,0,1 @ F,0,0,1,0,33.322865,0,1 @ F,0,0,1,0,31.157102,0,1 @ F,0,0,1,0,0,0,1 @ F,0,0,1,0,0,0,1 @ F,0,0,1,0,0,0,1 @ F,0,0,1,0,0,0,1" unit="px" method="auto" mode="F" radius="0" chamfer_steps="1" flexible="false" use_knot_distance="true" apply_no_radius="true" apply_with_radius="true" only_selected="true" hide_knots="false" /><inkscape:path-effect effect="spiro" id="path-effect28" is_visible="true" lpeversion="1" /><inkscape:path-effect effect="spiro" id="path-effect868" is_visible="true" lpeversion="1" /><inkscape:path-effect effect="spiro" id="path-effect849" is_visible="true" lpeversion="1" /><inkscape:path-effect effect="spiro" id="path-effect851" is_visible="true" lpeversion="1" />
  <svg:style type="text/css" id="style2">
   
    .fil0 {fill:#EF7F1A;fill-rule:nonzero}
   
  </svg:style>
 <inkscape:path-effect effect="spiro" id="path-effect1214" is_visible="true" lpeversion="1" /><inkscape:path-effect effect="spiro" id="path-effect1195" is_visible="true" lpeversion="1" /><inkscape:path-effect effect="spiro" id="path-effect992" is_visible="true" lpeversion="1" /><inkscape:path-effect effect="spiro" id="path-effect1060" is_visible="true" lpeversion="1" /><inkscape:path-effect effect="spiro" id="path-effect1047" is_visible="true" lpeversion="1" /><inkscape:path-effect effect="spiro" id="path-effect1085" is_visible="true" lpeversion="1" /><inkscape:path-effect effect="spiro" id="path-effect1286" is_visible="true" lpeversion="1" /></svg:defs>
 
<svg:g id="path26"><svg:path style="color:#000000;clip-rule:nonzero;fill:#1a5fb4;fill-rule:nonzero;stroke-linecap:round;stroke-linejoin:round;-inkscape-stroke:none;shape-rendering:auto" d="m 181.97461,-22.726562 c -12.34903,-0.621603 -24.93902,3.437821 -33.4668,12.511718 C 120.87238,19.190366 95.970043,51.146857 74.214844,85.138672 14.280996,178.78343 -21.15781,287.70694 -27.306641,398.80469 c -8.072984,145.86357 34.0532021,289.84549 101.90625,416.33203 18.268297,34.05438 38.439381,67.08325 60.386721,98.88867 9.80287,14.20603 26.27343,24.15393 43.6914,24.55469 17.41797,0.40075 33.98122,-8.51764 44.60352,-21.84766 l 39.58594,-49.67578 c 20.81488,-26.12079 14.79193,-64.90337 -10.14453,-85.04687 -18.94469,-15.30339 -36.44221,-32.41608 -52.14258,-51.01563 -74.59845,-88.37353 -106.794667,-210.74487 -98.67774,-328.60156 3.03067,-44.00482 11.32727,-87.19801 27.0918,-126.82813 15.73234,-39.54919 39.22725,-75.77198 69.75586,-103.33398 16.42914,-14.83265 35.06043,-27.3276 55.0332,-36.93945 11.65797,-5.61038 22.02015,-16.31001 25.66407,-30.21094 3.64391,-13.900932 -0.49495,-29.323719 -8.8125,-39.939455 L 213.99414,-7.1503906 C 206.43147,-16.802661 194.32363,-22.10496 181.97461,-22.726562 Z m -2.91016,68.277343 34.00586,43.404297 c -19.55185,10.81259 -37.91922,23.744232 -54.52929,38.740232 -38.50347,34.76192 -66.655022,78.82313 -85.298833,125.69141 -18.611617,46.78735 -27.83974,96.10366 -31.199218,144.88281 -9.052239,131.43723 26.100721,268.8502 112.687501,371.42578 18.17082,21.52618 38.38616,41.29527 60.28906,58.98828 1.82883,1.47732 1.55652,0.18651 0.92383,0.98047 l -35.45313,44.49219 C 161.33134,845.96407 143.58487,816.80861 127.47266,786.77344 63.71319,667.91785 25.28893,534.24459 32.601562,402.11914 38.16534,301.5922 70.432512,202.35289 124.75195,117.48047 140.96188,92.152961 159.20563,68.13979 179.06445,45.550781 Z" id="path22052" /></svg:g></svg:svg>
